X:1
T:Mrs. C. H. Morris
T:Mrs. C. H. M.
T:Nothing Satisfies but Jesus
%%score { ( 1 2 ) | ( 3 4 ) }
L:1/8
M:4/4
K:F
V:1 treble 
V:2 treble 
V:3 bass 
V:4 bass 
V:1
{/x} F3 F FFEF | G4 G4 | G3 B AGFG | A6 z2 | c3 c cFGF | F4 B4 | A3 B AGFE | F6"^Chorus" A>G | %8
w: Noth\- ing sat\- is\- fies but|Je\- sus,|Bread of life to mor\- tals|giv'n;|May His pres\- ence now re\-|fresh us|Like the morn\- ing dew from|heav'n! Give me|
w: Since I heard the voice of|Je\- sus,|Since mine eyes be\- hold the|King,|All my love, my heart's af\-|fec\- tion,|All I have, to Him I|bring. * *|
w: With His joy my heart is|thrill\- ing,|All my hope in Him I|see;|Doubt, and gloom, and fear dis\-|pell\- ing,|Christ is All in all to|me. * *|
 F2 F4 B>A | G2 G4 G>A | B3 A c3 A | A2[Q:1/4=72]"^Adagio" !fermata!G3[Q:1/4=112]"^Moderato" CF>G | %12
w: Je\- sus give me|Je\- sus, Take the|world, but give me|Je\- sus, To sat\- is\-|
w: ||||
w: ||||
 A4- AABA | A2 G3 GE>F | G4- GBAG | F>G A3 cdc | c4- cFGF | B4- BBAG | FC A4- AG | F6 z2 |] %20
w: fy * with ev\- 'ry|bless\- ing, His love and|peace * my soul pos\-|sess\- * ing; To all be\-|side, * my heart re\-|plies: * There's naught but|Je\- sus sat\- * is-|fies!|
w: ||||||||
w: ||||||||
V:2
 C3 C CCCC | E4 E4 | E3 E ECCC | C6 z2 | _E3 E EEEE | D4 D4 | F3 E ECCC | C6 C>B, | A,2 C4 G>F | %9
 E2 E4 E>F | E3 F F3 F | F2 E3 B,A,>B, | C4- CCDC | C2 B,3 B,F,>A, | B,4- B,DCB, | A,>B, C3 _EEE | %16
 _E4- EEEE | D4- DGFD | CA, C4- CB, | A,6 z2 |] %20
V:3
 A,3 A, A,A,B,A, | C4 C4 | C3 D CB,A,E, | F,6 z2 | A,3 A, A,CCC | B,4 B,4 | C3 D CB,A,B, | %7
w: |||||||
 [F,A,]6 z2 | F,F, A,2 A,2 z2 | CC C2 C2 C>C | C3 C C3 C | C2 C3 B,A,>B, | C4- CCDC | %13
w: ||Give me Je- sus, * *||||
 C2 B,3 B,G,>A, | B,4- B,DC,B, | A,>B, C3 A,A,A, | A,4- A,A,A,A, | B,4- B,DCB, | A,F, (F,4 E,)E, | %19
w: ||||||
 F,6 z2 |] %20
w: |
V:4
 F,3 F, F,A,G,F, | C,4 C,4 | C,3 C, C,C,C,C, | F,6 z2 | F,3 F, F,A,A,A, | B,4 G,4 | %6
w: ||||||
 C,3 C, C,C,C,C, | F,,6 z2 | F,F, F,2 F,2 z2 | C,C, C,2 C,2 D>A, | G,3 F, A,3 F, | %11
w: ||Give me Je- sus,|||
 C,2 C,3 z [F,,C,]2 | [F,,F,]2 [F,,C,]2 F,,2 [F,,C,]2 | [C,E,]2 [C,,C,]2 [C,E,]2 [C,,C,]2 | %14
w: |||
 [C,E,]2 [C,,C,]2 [C,E,]2 C,,2 | [F,,C,]2 [F,,F,]3 F,F,F, | F,4- F,F,F,F, | G,4- G,G,,A,,B,, | %18
w: ||||
 C,C, C,4- C,C, | F,,6 z2 |] %20
w: ||

